X:43
T:Roxburgh Castle #2
C:Joe Buchanan's Scottish Tome - Page 176.2
I:176 2
Z:Carl Allison
R:Hornpipe
L:1/8
M:4/4
K:A
E2 | "A"A2 (Ac) "A/C#"ecAc | "D"d2 (cf) "A"ecAc | "D"d2 fd "A/C#"c2 ec | "Bm"B2 B2 "E7"BdcB |
"A"A2 (Ac) "A/C#"ecAc | "D"d2 (cf) "A"ecAc | "A"eagf "E7"edcB | "A"A2 "D"A2 "A"A2 :|
e2 | "A"aece "A/C#"fece | "A"aece "A/C#"fece | "D"d2 fd "A/C#"c2 ec | "Bm"B2 B2 "E7"BdcB |
"A"A2 Ac "A/C#"ecAc | "D"d2 df "A"ecAc | "A"eagf "E7"edcB | "A"A2 "D"A2 "A"A2 :|

